X:397
T: General Graham's Waltz
N: O'Farrell's Pocket Companion v.4 (Sky ed. p.170)
M: 3/8
L: 1/8
R: waltz
Q: 130
K: G
B/c/| dd g/e/| dd g/e/| dde| c2c|
Bdg| eea| fef |g2 :|
P:2
f/g/| a/f/ dd| d/B/GG| e/c/AA| ABc|
B/d/gg| c/e/ aa| g/f/e/d/e/f/| g2 :|
P:3
G/A/| BBc/A/| GG B/c/| dd e/c/| B2 G/A/|
BBc/A/| dd e/c/| B B/G/A/F/|G2 :|
